assets/svgs/disabled-comments/iconmonstr/filled.svg

<svg id="twrp-dcom-im-f" fill-rule="evenodd" clip-rule="evenodd"><path d="M3.439 3l-1.439-1.714 1.532-1.286 17.382 20.714-1.533 1.286-2.533-3.019h-5.848l-7 5.02v-5.02h-4v-15.981h3.439zm20.561 15.981h-2.588l-13.41-15.981h15.998v15.981z"/></svg>

<svg id="twrp-dcom-im-f" viewBox="0 0 24 24" fill-rule="evenodd" clip-rule="evenodd"><path d="M3.4,3L2,1.3L3.5,0l17.4,20.7L19.4,22l-2.5-3H11l-7,5v-5H0V3C0,3,3.4,3,3.4,3z M24,19h-2.6L8,3h16V19z"/></svg>
